client/src/assets/logout.svg

<svg width="24" height="24" viewBox="0 0 24 24" fill="none" xmlns="http://www.w3.org/2000/svg">
<path d="M17 8L15.59 9.41L17.17 11H9V13H17.17L15.59 14.58L17 16L21 12L17 8ZM5 5H12V3H5C3.9 3 3 3.9 3 5V19C3 20.1 3.9 21 5 21H12V19H5V5Z" fill="black"/>
</svg>

<?xml version="1.0" encoding="utf-8"?>
<!-- Generator: Adobe Illustrator 25.2.3, SVG Export Plug-In . SVG Version: 6.00 Build 0)  -->
<svg version="1.1" id="Layer_1" xmlns="http://www.w3.org/2000/svg" xmlns:xlink="http://www.w3.org/1999/xlink" x="0px" y="0px"
	 viewBox="0 0 24 24" style="enable-background:new 0 0 24 24;" xml:space="preserve">
<style type="text/css">
	.st0{fill:#FBBC05;}
</style>
<path class="st0" d="M17,8l-1.4,1.4l1.6,1.6H9v2h8.2l-1.6,1.6L17,16l4-4L17,8z M5,5h7V3H5C3.9,3,3,3.9,3,5v14c0,1.1,0.9,2,2,2h7v-2
	H5V5z"/>
</svg>
